X: 8319
T: Corsair, The
R: hornpipe
M: 4/4
K: Dminor
AddA cAGE|FEDF EA,A,G,|A,DFD EGcB|Adfa gecA|
d3A cAGE|FAGF EA,A,G,|A,DFD EGcB|1 AGEF D4:|2 AGEF DEFG||
|:AF~F2 GE~E2|Fd~d2 eccB|Adfa gbeg|fadf edcB|
AF~F2 GE~E2|Fd~d2 eccB|Adfa gecB|1 AGEF DEFG:|2 AGEF D4||

